X: 73
T:Farandole de Fr?jus
R:Farandole
A:Provence
O:France
M:6/8
L:1/8
K:Bbmaj
A3A3|c3cBA|GAB cd=e|f=ed cdc|A3A3|c3cBA|
GAB cd=e|fcA F3[M:6/8]|A3A3|c3cBA|
GAB cd=e|f=ed cdc|A3A3|c3cBA|GAB cd=e|
f3f2c|cAc cAc|d2d d3|=e2e ede|f=ed c2c|
cAc cAc|d2d d3|=e2e ede|f3f2c|cAc cAc|
d2d d3|=e2e ede|f=ed c2c|cAc cAc|d2d d3|
=e2e ede|f3f2F|d3cdc|B3F2F|GFG AGA|
BAG F2F|d3cdc|B3F2F|GFG AGA|B3B2F|d3cdc|
B3F2F|GFG AGA|BAG F2F|d3cdc|B3F2F|GFG AGA|B6|]
<end>
<start>
